logos/productboard.svg

<?xml version="1.0" encoding="UTF-8"?>
<svg width="512px" height="64px" viewBox="0 0 512 64" version="1.1" xmlns="http://www.w3.org/2000/svg" xmlns:xlink="http://www.w3.org/1999/xlink" preserveAspectRatio="xMidYMid">
    <g>
        <g transform="translate(0.000000, 5.225944)">
            <polygon fill="#FF2638" points="27.8627462 27.4283703 55.7254923 54.8567407 0 54.8567407"></polygon>
            <polygon fill="#FFC600" points="0 0 27.8627462 27.4283703 55.7254923 0"></polygon>
            <polygon fill="#0079F2" points="27.8672243 27.4283703 55.7299704 54.8567407 83.5927166 27.4283703 55.7299704 0"></polygon>
        </g>
        <path d="M504.24316,18.2258722 C504.24316,18.6244232 503.692354,18.7990692 503.432624,18.4945583 C501.395088,16.1256427 498.027556,14.3299241 493.419589,14.3299241 C483.446858,14.3299241 477.777582,22.3815502 477.777582,32.1303767 C477.777582,41.8165097 483.446858,49.8636577 493.419589,49.8636577 C498.090249,49.8636577 501.739902,48.2291508 504.005821,45.407947 C504.261073,45.0944799 504.829791,45.2646477 504.829791,45.6676768 L504.829791,48.681439 C504.829791,48.9053441 505.008916,49.0844681 505.228342,49.0844681 L511.596202,49.0844681 C511.820108,49.0844681 511.999232,48.9053441 511.999232,48.681439 L511.999232,0.403029115 C511.999232,0.180442281 511.818789,0 511.596202,0 L504.641711,0 C504.420875,0.00245388503 504.243147,0.182179425 504.24316,0.403029115 L504.24316,18.2258722 Z M504.565583,32.1303767 C504.565583,38.2205944 500.983102,42.9942504 495.049618,42.9942504 C489.183306,42.9942504 485.533653,38.2161163 485.533653,32.1303767 C485.533653,25.9147721 489.183306,21.2038096 495.049618,21.2038096 C500.983102,21.2038096 504.565583,25.9147721 504.565583,32.1303767 Z M475.843044,15.2255443 C475.843687,15.0171131 475.683624,14.8433859 475.475838,14.8269933 C475.228442,14.8079648 474.980552,14.7960184 474.732473,14.7911685 C469.940904,14.7911685 467.151047,16.712274 465.615059,18.5930765 C465.355329,18.9065436 464.759741,18.7363758 464.759741,18.3243904 L464.759741,15.5166209 C464.759755,15.2957712 464.582026,15.1160457 464.36119,15.1135918 L457.988852,15.1135918 C457.768016,15.1160457 457.590301,15.2957712 457.590301,15.5166209 L457.590301,48.681439 C457.590301,48.9053441 457.769425,49.0844681 457.988852,49.0844681 L464.947821,49.0844681 C465.168658,49.0820142 465.346386,48.9022887 465.346372,48.681439 L465.346372,31.4138805 C465.346372,24.8668964 468.60643,21.9874773 474.083148,21.9874773 C474.548871,21.9874773 475.041462,22.0322583 475.381797,22.063605 C475.497476,22.0761572 475.613131,22.0397429 475.700751,21.9631811 C475.788372,21.8866194 475.839967,21.7768928 475.843044,21.6605759 L475.843044,15.2255443 L475.843044,15.2255443 Z M442.996169,33.1827305 C443.111948,33.1658296 443.229356,33.2000783 443.317889,33.2765779 C443.406423,33.3530775 443.457413,33.4642759 443.457413,33.5812815 L443.457413,35.2740038 C443.457413,39.8551014 440.394392,43.7823962 434.134007,43.7823962 C430.417183,43.7823962 428.133351,42.537484 428.133351,39.3311635 C428.133351,36.9756823 429.700686,35.2113104 434.460908,34.4858579 L442.996169,33.1872086 L442.996169,33.1827305 Z M432.571149,49.8681358 C437.394064,49.8681358 441.021326,48.462012 443.37233,45.7035017 C443.627581,45.3989908 444.187344,45.5691586 444.205256,45.9721877 C444.299296,47.9201618 444.576939,49.07999 444.630676,49.07999 L451.388131,49.07999 C451.674729,49.07999 451.876244,48.7844353 451.786682,48.5112712 C451.316481,47.0245415 451.016448,44.615323 451.016448,42.667349 L451.016448,27.0253412 C451.016448,19.2379231 446.323398,14.3299241 436.417838,14.3299241 C426.43615,14.3299241 422.347644,19.5603464 421.541586,25.3415751 C421.52887,25.4540187 421.564552,25.5665668 421.639732,25.6511438 C421.714911,25.7357209 421.8225,25.7843524 421.935659,25.7849072 L428.711026,25.7849072 C428.908062,25.7849072 429.069274,25.6416079 429.114055,25.4490496 C429.745467,22.506937 432.136773,20.7470432 436.220802,20.7470432 C440.84668,20.7470432 443.457413,22.8383165 443.457413,26.9626478 L443.457413,27.1372937 C443.457289,27.3372985 443.310507,27.5069552 443.1126,27.5358448 L433.67724,28.8613627 C424.747906,30.1017968 420.708659,33.8320552 420.708659,39.5908934 C420.708659,45.4124251 424.161275,49.8681358 432.571149,49.8681358 L432.571149,49.8681358 Z M400.176565,49.8681358 C410.995657,49.8681358 417.775503,41.6866448 417.775503,32.1348548 C417.775503,22.5785866 410.995657,14.3299241 400.176565,14.3299241 C389.420165,14.3299241 382.644798,22.5785866 382.644798,32.1303767 C382.644798,41.6866448 389.420165,49.8636577 400.176565,49.8636577 L400.176565,49.8681358 Z M390.400869,32.1348548 C390.400869,25.5206992 394.569982,21.2038096 400.176565,21.2038096 C405.850319,21.2038096 410.019431,25.5206992 410.019431,32.1303767 C410.019431,38.6773607 405.850319,42.9942504 400.176565,42.9942504 C394.569982,42.9942504 390.400869,38.6773607 390.400869,32.1303767 L390.400869,32.1348548 Z M354.07899,18.4945583 C353.81926,18.7990692 353.272932,18.6244232 353.272932,18.2258722 L353.272932,0.403029115 C353.272932,0.180442281 353.092489,0 352.869903,0 L345.915411,0 C345.692825,0 345.512382,0.180442281 345.512382,0.403029115 L345.512382,48.6769609 C345.512382,48.900866 345.691506,49.07999 345.915411,49.07999 L352.283271,49.07999 C352.507176,49.07999 352.686301,48.900866 352.686301,48.6769609 L352.686301,45.631852 C352.686301,45.2288229 353.241585,45.0586551 353.492359,45.3721222 C355.807537,48.2157165 359.461668,49.8681358 364.092024,49.8681358 C374.127449,49.8681358 379.801204,41.8165097 379.801204,32.1348548 C379.801204,22.3815502 374.127449,14.3299241 364.092024,14.3299241 C359.537795,14.3299241 356.12996,16.1256427 354.07899,18.4945583 Z M353.008724,32.1303767 C353.008724,25.9147721 356.591205,21.2038096 362.524689,21.2038096 C368.391002,21.2038096 372.045132,25.9147721 372.045132,32.1303767 C372.045132,38.2205944 368.391002,42.9942504 362.524689,42.9942504 C356.595683,42.9942504 353.008724,38.2161163 353.008724,32.1303767 Z M338.925095,42.6807833 C338.921264,42.5533339 338.861055,42.434161 338.760734,42.3554608 C338.660413,42.2767607 338.530332,42.2466546 338.405636,42.2732761 C337.957825,42.3628381 337.268198,42.4747906 336.515877,42.4747906 C333.84245,42.4747906 332.736359,41.162707 332.736359,38.4803243 L332.736359,21.7322255 C332.738813,21.5113894 332.918539,21.3336609 333.139388,21.3336745 L338.656409,21.3336745 C338.880314,21.3336745 339.059438,21.1545504 339.059438,20.9306454 L339.059438,15.5255771 C339.059438,15.3029903 338.878996,15.122548 338.656409,15.122548 L333.13491,15.122548 C333.02802,15.122548 332.925508,15.0800861 332.849926,15.0045035 C332.774343,14.9289209 332.731881,14.8264089 332.731881,14.7195189 L332.731881,6.69028331 C332.731895,6.46943362 332.554166,6.28970808 332.33333,6.2872542 L325.378839,6.2872542 C325.156252,6.2872542 324.97581,6.46769648 324.97581,6.69028331 L324.97581,14.723997 C324.97581,14.830887 324.933348,14.933399 324.857765,15.0089816 C324.782183,15.0845642 324.679671,15.1270261 324.572781,15.1270261 L320.229022,15.1270261 C320.008173,15.1270125 319.828447,15.3047411 319.825993,15.5255771 L319.825993,20.9396016 C319.825993,21.1635066 320.005117,21.3426307 320.229022,21.3426307 L324.572781,21.3426307 C324.796686,21.3426307 324.97581,21.5217547 324.97581,21.7411817 L324.97581,39.2729482 C324.97581,45.6855892 327.976138,49.2859827 334.885848,49.2859827 C336.802475,49.2859827 338.083212,49.0710338 338.629541,48.9590813 C338.805369,48.9205583 338.929266,48.7628717 338.925095,48.5829208 L338.925095,42.6807833 L338.925095,42.6807833 Z M284.211654,32.1303767 C284.211654,41.9463747 291.121364,49.8636577 301.094096,49.8636577 C310.883225,49.8636577 315.961392,43.2091992 317.054049,37.2354121 C317.07408,37.1210474 317.042059,37.0037078 316.966713,36.9153706 C316.891366,36.8270334 316.780547,36.7769048 316.664454,36.7786458 L309.490536,36.7786458 C309.305751,36.7802836 309.144662,36.9047613 309.096463,37.0831567 C308.093368,40.5805538 305.084084,42.9942504 301.026924,42.9942504 C295.487513,42.9942504 291.967725,38.4803243 291.967725,32.1303767 C291.967725,25.7177356 295.487513,21.2038096 301.026924,21.2038096 C305.084084,21.2038096 308.093368,23.6175061 309.096463,27.1149032 C309.145722,27.2940273 309.306933,27.4194141 309.490536,27.4194141 L316.664454,27.4194141 C316.780547,27.4211551 316.891366,27.3710266 316.966713,27.2826894 C317.042059,27.1943521 317.07408,27.0770126 317.054049,26.9626478 C315.961392,20.9888607 310.883225,14.3344022 301.094096,14.3344022 C291.121364,14.3344022 284.211654,22.2516853 284.211654,32.1303767 L284.211654,32.1303767 Z M271.149032,34.6828944 C271.149032,40.2446962 268.153183,43.1912868 263.330268,43.1912868 C258.637217,43.1912868 256.747459,40.1148313 256.747459,35.4710402 L256.747459,15.5166209 C256.747459,15.2940341 256.567016,15.1135918 256.34443,15.1135918 L249.389938,15.1135918 C249.167351,15.1135918 248.986909,15.2940341 248.986909,15.5166209 L248.986909,36.5189159 C248.986909,44.436199 253.227671,49.8636577 261.436031,49.8636577 C265.994738,49.8636577 269.107018,48.1485449 270.849,46.0214468 C271.113208,45.6990235 271.740142,45.8826257 271.740142,46.2990891 L271.740142,48.681439 C271.740142,48.9053441 271.919266,49.0844681 272.143171,49.0844681 L278.506553,49.0844681 C278.730458,49.0844681 278.909582,48.9053441 278.909582,48.681439 L278.909582,15.5166209 C278.909582,15.2940341 278.72914,15.1135918 278.506553,15.1135918 L271.552062,15.1135918 C271.329475,15.1135918 271.149032,15.2940341 271.149032,15.5166209 L271.149032,34.6828944 L271.149032,34.6828944 Z M235.279441,18.2258722 C235.279441,18.6244232 234.728635,18.7990692 234.468905,18.4945583 C232.431369,16.1256427 229.063837,14.3299241 224.45587,14.3299241 C214.483139,14.3299241 208.809385,22.3815502 208.809385,32.1303767 C208.809385,41.8165097 214.483139,49.8636577 224.45587,49.8636577 C229.122052,49.8636577 232.771704,48.2291508 235.042102,45.407947 C235.297354,45.0944799 235.861594,45.2646477 235.861594,45.6676768 L235.861594,48.681439 C235.861594,48.9053441 236.040718,49.0844681 236.264623,49.0844681 L242.632483,49.0844681 C242.856389,49.0844681 243.035513,48.9053441 243.035513,48.681439 L243.035513,0.403029115 C243.035513,0.180442281 242.85507,0 242.632483,0 L235.677992,0 C235.455405,0 235.274963,0.180442281 235.274963,0.403029115 L235.274963,18.2258722 L235.279441,18.2258722 Z M235.601864,32.1303767 C235.601864,38.2205944 232.019383,42.9942504 226.085899,42.9942504 C220.219587,42.9942504 216.565456,38.2161163 216.565456,32.1303767 C216.565456,25.9147721 220.219587,21.2038096 226.085899,21.2038096 C232.014905,21.2038096 235.601864,25.9147721 235.601864,32.1303767 Z M188.080254,49.8681358 C198.903824,49.8681358 205.679192,41.6866448 205.679192,32.1348548 C205.679192,22.5741085 198.908303,14.3299241 188.080254,14.3299241 C177.328333,14.3299241 170.548487,22.5785866 170.548487,32.1303767 C170.548487,41.6866448 177.328333,49.8636577 188.080254,49.8636577 L188.080254,49.8681358 Z M178.304559,32.1348548 C178.304559,25.5206992 182.473671,21.2038096 188.080254,21.2038096 C193.754008,21.2038096 197.92312,25.5206992 197.92312,32.1303767 C197.92312,38.6773607 193.754008,42.9942504 188.080254,42.9942504 C182.473671,42.9942504 178.304559,38.6773607 178.304559,32.1303767 L178.304559,32.1348548 Z M169.657347,15.2255443 C169.657991,15.0171131 169.497927,14.8433859 169.290141,14.8269933 C169.044239,14.8079719 168.797842,14.7960254 168.551254,14.7911685 C163.759686,14.7911685 160.96535,16.712274 159.429362,18.5930765 C159.169632,18.9065436 158.578522,18.7363758 158.578522,18.3243904 L158.578522,15.5166209 C158.578522,15.2940341 158.39808,15.1135918 158.175493,15.1135918 L151.807633,15.1135918 C151.585047,15.1135918 151.404604,15.2940341 151.404604,15.5166209 L151.404604,48.681439 C151.404604,48.9053441 151.583728,49.0844681 151.807633,49.0844681 L158.762125,49.0844681 C158.98603,49.0844681 159.165154,48.9053441 159.165154,48.681439 L159.165154,31.4138805 C159.165154,24.8668964 162.420733,21.9874773 167.897451,21.9874773 C168.367652,21.9874773 168.855765,22.0322583 169.196101,22.063605 C169.311779,22.0761572 169.427434,22.0397429 169.515054,21.9631811 C169.602675,21.8866194 169.654271,21.7768928 169.657347,21.6605759 L169.657347,15.2255443 Z M120.084764,45.9990563 C120.084764,45.5960272 120.640048,45.4213813 120.904256,45.7303703 C122.950749,48.1261544 126.358584,49.8681358 130.908335,49.8681358 C140.94376,49.8681358 146.617514,41.8165097 146.617514,32.1348548 C146.617514,22.3815502 140.94376,14.3299241 130.908335,14.3299241 C126.2735,14.3299241 122.619369,16.0360807 120.304191,18.8528064 C120.053417,19.1617954 119.498133,18.9871494 119.498133,18.5841203 L119.498133,15.5166209 C119.498133,15.2940341 119.31769,15.1135918 119.095104,15.1135918 L112.731722,15.1135918 C112.509135,15.1135918 112.328692,15.2940341 112.328692,15.5166209 L112.328692,62.2903888 C112.328692,62.5142939 112.507817,62.6934179 112.731722,62.6934179 L119.686213,62.6934179 C119.910118,62.6934179 120.089242,62.5142939 120.089242,62.2903888 L120.089242,45.9990563 L120.084764,45.9990563 Z M119.825034,32.1303767 C119.825034,25.8476006 123.407515,21.0694665 129.340999,21.0694665 C135.207312,21.0694665 138.861443,25.8476006 138.861443,32.1303767 C138.861443,38.2205944 135.207312,42.9942504 129.340999,42.9942504 C123.411993,42.9942504 119.825034,38.2161163 119.825034,32.1303767 Z" fill="#000C2C"></path>
    </g>
</svg>

<svg width="512" height="64" xmlns="http://www.w3.org/2000/svg" preserveAspectRatio="xMidYMid">
	<path fill="#FF2638" d="m27.863 32.654 27.862 27.429H0z"/>
	<path fill="#FFC600" d="m0 5.226 27.863 27.428L55.725 5.226z"/>
	<path fill="#0079F2" d="M27.867 32.654 55.73 60.083l27.863-27.429L55.73 5.226z"/>
	<path d="M504.243 18.226c0 .398-.55.573-.81.269-2.038-2.37-5.405-4.165-10.013-4.165-9.973 0-15.642 8.052-15.642 17.8 0 9.687 5.669 17.734 15.642 17.734 4.67 0 8.32-1.635 10.586-4.456.255-.314.824-.143.824.26v3.013a.4.4 0 0 0 .398.403h6.368c.224 0 .403-.179.403-.403V.403a.403.403 0 0 0-.403-.403h-6.954a.403.403 0 0 0-.399.403v17.823Zm.323 13.904c0 6.09-3.583 10.864-9.516 10.864-5.867 0-9.516-4.778-9.516-10.864 0-6.215 3.65-10.926 9.516-10.926 5.933 0 9.516 4.71 9.516 10.926Zm-28.723-16.904a.399.399 0 0 0-.367-.399 13.009 13.009 0 0 0-.744-.036c-4.791 0-7.581 1.921-9.117 3.802-.26.314-.855.143-.855-.269v-2.807c0-.221-.178-.401-.399-.403h-6.372a.403.403 0 0 0-.399.403V48.68a.4.4 0 0 0 .399.403h6.959a.403.403 0 0 0 .398-.403V31.414c0-6.547 3.26-9.427 8.737-9.427.466 0 .958.045 1.299.077a.416.416 0 0 0 .461-.403v-6.435Zm-32.847 17.957a.403.403 0 0 1 .461.398v1.693c0 4.581-3.063 8.508-9.323 8.508-3.717 0-6-1.245-6-4.45 0-2.356 1.567-4.12 6.327-4.846l8.535-1.299v-.004Zm-10.425 16.685c4.823 0 8.45-1.406 10.801-4.164.256-.305.815-.135.833.268.094 1.948.372 3.108.426 3.108h6.757c.287 0 .488-.296.399-.569-.47-1.486-.77-3.896-.77-5.844V27.025c0-7.787-4.694-12.695-14.6-12.695-9.98 0-14.07 5.23-14.875 11.012a.399.399 0 0 0 .394.443h6.775a.42.42 0 0 0 .403-.336c.631-2.942 3.023-4.702 7.107-4.702 4.626 0 7.236 2.091 7.236 6.216v.174c0 .2-.146.37-.344.399l-9.436 1.325c-8.93 1.24-12.968 4.971-12.968 10.73 0 5.821 3.452 10.277 11.862 10.277Zm-32.394 0c10.819 0 17.599-8.181 17.599-17.733 0-9.556-6.78-17.805-17.6-17.805-10.756 0-17.531 8.249-17.531 17.8 0 9.557 6.775 17.734 17.532 17.734v.004ZM390.4 32.135c0-6.614 4.169-10.931 9.776-10.931 5.673 0 9.842 4.317 9.842 10.926 0 6.547-4.169 10.864-9.842 10.864-5.607 0-9.776-4.317-9.776-10.864v.005Zm-36.322-13.64c-.26.304-.806.13-.806-.27V.404A.403.403 0 0 0 352.87 0h-6.955a.403.403 0 0 0-.403.403v48.274c0 .224.18.403.403.403h6.368c.224 0 .403-.18.403-.403v-3.045c0-.403.556-.573.806-.26 2.316 2.844 5.97 4.496 10.6 4.496 10.035 0 15.71-8.051 15.71-17.733 0-9.753-5.675-17.805-15.71-17.805-4.554 0-7.962 1.796-10.013 4.165Zm-1.07 13.635c0-6.215 3.582-10.926 9.516-10.926 5.866 0 9.52 4.71 9.52 10.926 0 6.09-3.654 10.864-9.52 10.864-5.93 0-9.516-4.778-9.516-10.864Zm-14.084 10.55a.43.43 0 0 0-.52-.407 9.812 9.812 0 0 1-1.89.202c-2.673 0-3.779-1.312-3.779-3.995V21.732a.403.403 0 0 1 .403-.398h5.517c.224 0 .403-.18.403-.403v-5.405a.403.403 0 0 0-.403-.403h-5.521a.403.403 0 0 1-.403-.403V6.69c0-.22-.178-.4-.399-.403h-6.954a.403.403 0 0 0-.403.403v8.034a.403.403 0 0 1-.403.403h-4.344c-.22 0-.4.178-.403.399v5.414c0 .224.18.403.403.403h4.344a.4.4 0 0 1 .403.398v17.532c0 6.413 3 10.013 9.91 10.013 1.916 0 3.197-.215 3.744-.327a.376.376 0 0 0 .295-.376V42.68Zm-54.713-10.55c0 9.816 6.91 17.734 16.882 17.734 9.79 0 14.867-6.655 15.96-12.629a.39.39 0 0 0-.39-.456h-7.173a.412.412 0 0 0-.395.304c-1.003 3.498-4.012 5.911-8.07 5.911-5.538 0-9.058-4.514-9.058-10.864 0-6.412 3.52-10.926 9.059-10.926 4.057 0 7.066 2.414 8.07 5.91.049.18.21.305.394.305h7.173a.39.39 0 0 0 .39-.456c-1.093-5.974-6.17-12.629-15.96-12.629-9.973 0-16.882 7.918-16.882 17.796Zm-13.063 2.553c0 5.562-2.996 8.508-7.819 8.508-4.693 0-6.583-3.076-6.583-7.72V15.517a.403.403 0 0 0-.403-.403h-6.954a.403.403 0 0 0-.403.403v21.002c0 7.917 4.24 13.345 12.449 13.345 4.559 0 7.671-1.715 9.413-3.843.264-.322.891-.138.891.278v2.382c0 .224.18.403.403.403h6.364c.223 0 .403-.179.403-.403V15.517a.403.403 0 0 0-.403-.403h-6.955a.403.403 0 0 0-.403.403v19.166Zm-35.87-16.457c0 .398-.55.573-.81.269-2.038-2.37-5.405-4.165-10.013-4.165-9.973 0-15.647 8.052-15.647 17.8 0 9.687 5.674 17.734 15.647 17.734 4.666 0 8.316-1.635 10.586-4.456.255-.314.82-.143.82.26v3.013c0 .224.179.403.403.403h6.367c.224 0 .404-.179.404-.403V.403a.403.403 0 0 0-.404-.403h-6.954a.403.403 0 0 0-.403.403v17.823h.004Zm.323 13.904c0 6.09-3.583 10.864-9.516 10.864-5.866 0-9.52-4.778-9.52-10.864 0-6.215 3.654-10.926 9.52-10.926 5.929 0 9.516 4.71 9.516 10.926ZM188.08 49.868c10.824 0 17.6-8.181 17.6-17.733 0-9.56-6.772-17.805-17.6-17.805-10.752 0-17.532 8.249-17.532 17.8 0 9.557 6.78 17.734 17.532 17.734v.004Zm-9.775-17.733c0-6.614 4.169-10.931 9.775-10.931 5.674 0 9.843 4.317 9.843 10.926 0 6.547-4.169 10.864-9.843 10.864-5.606 0-9.775-4.317-9.775-10.864v.005Zm-8.648-16.91a.399.399 0 0 0-.367-.398 12.866 12.866 0 0 0-.739-.036c-4.791 0-7.586 1.921-9.122 3.802-.26.314-.85.143-.85-.269v-2.807a.403.403 0 0 0-.404-.403h-6.367a.403.403 0 0 0-.403.403V48.68c0 .224.179.403.403.403h6.954c.224 0 .403-.179.403-.403V31.414c0-6.547 3.256-9.427 8.732-9.427.47 0 .959.045 1.3.077a.416.416 0 0 0 .46-.403v-6.435ZM120.085 46c0-.403.555-.578.82-.269 2.046 2.396 5.454 4.138 10.003 4.138 10.036 0 15.71-8.051 15.71-17.733 0-9.753-5.674-17.805-15.71-17.805-4.634 0-8.289 1.706-10.604 4.523-.25.309-.806.134-.806-.269v-3.067a.403.403 0 0 0-.403-.403h-6.363a.403.403 0 0 0-.403.403V62.29c0 .224.179.403.403.403h6.954c.224 0 .403-.179.403-.403V46h-.004Zm-.26-13.869c0-6.282 3.583-11.06 9.516-11.06 5.866 0 9.52 4.778 9.52 11.06 0 6.09-3.654 10.864-9.52 10.864-5.929 0-9.516-4.778-9.516-10.864Z" fill="#000C2C"/>
</svg>
